X:1
T:Vlierbessenmars
T:mars
C:Jan Alexander STRYCKERS
O:Lier VL-B
Z:jan.stryckers@lycos.nl
N:= sambukbera marsxo / elderberry march
R:march
L:1/4
M:2/2
P:(AABB)n
K:G
|: GA/B/AG | dB/c/de/d/ | gd/e/dc/B/ | [M:6/8] AG/AB/ |\
 [M:2/4] A2 | [M:2/2][L:1/4] GA/B/AG | dB/c/de/f/ | gd/e/fe | d4 :|
|: de/f/ed | Ac/B/AG/A/ | B/c/d/e/dc/B/ | A2A2 |\
 de/f/ed | Bc/d/ GA/B/ | cB/A/BA/G/ | d4 |
 GA/B/AG | dB/c/de/d/ | gd/e/dc/B/ | [M:6/8] AG/AB/ |\
 [M:2/4] A2 | [M:2/2][L:1/4] GA/B/AG | dB/c/de/f/ | g/d/c/B/A>G | G4 :|
